!!!SOCIAL_FUNCTION:	songs of the buffalo society (dream societies)
!!!PDT:	1918

Specific Region: Dakotas, Minnesota, Montana, Nebraska
!!!REG: Dakotas and Montana
!!!LING_GROUP: Siouan
!!!LANG: Tone
!!!OTL@ENG: Northward They Are Walking
!!!ONM: No. 95
**kern
*Imale
*clefF4
*k[b-e-a-d-g-c-]
*M3/4
*MM96
16f
=1
8.f
16f
4f
(16e-
16d-)
8d-
=2
(16e-
16B-)
8B-
8.B-
16B-
8.B-
16B-
=3||
*M2/4
8.e-
16e-
(16e-
8.d-)
=4
(16e-
16B-)
8B-
8.B-
16e-
=5
(12e-
12B-)
12B-
(16B-
8.G-)
=6
8B-
16B-
16B-
(12B-
12G-)
12G-
=7
4G-
8.G-
16G-
=8||
*M3/4
2B-
12B-
8c-
24c-
=9||
*M2/4
4.B-
8G-
=10||
*M3/4
2B-
12B-
8c-
24c-
=11
2.B-
==
*-
!!!CNT: Native American -- Sioux
!!!MRD: 1911/07//-1914///
!!!OCL: Frances Densmore
!!!YOR1: Teton Sioux Music, Bulletin 61,
!!!YOR2: Bureau of American Ethnology, Smithsonian Institution
!!!PPR: Government Printing Office
!!!PPP: Washington, D.C.
!!!PDT: 1918///
!!!ENC: Craig Stuart Sapp
!!!END: 2002/03/25/
!!!EEV: 2002/03/31/
!!!AGN: Society Song/Song of the Buffalo Society
!!!MPN@@SIO: Wakang'-chika'na
!!!MPN@ENG: Little Conjuror
!!!TXO: Santee Sioux
!!!MLC: Sisseton, South Dakota, United States of America
!!!ARL: 45.6/-97.1:
!!!catalog: Catalogue No. 663
!!!PPG: 286
!!!EFL: 95/245
!!!VTS: 2622881230
